Sources/FrostedUI/Resources/Icons.xcassets/document32.imageset/document-32.svg

<svg width="32" height="32" viewBox="0 0 32 32" fill="none" xmlns="http://www.w3.org/2000/svg" data-fui-icon="true">
  <path
    d="M17.9736 1.00195C17.9824 1.00165 17.9912 1 18 1C18.0261 1 18.0518 1.00228 18.0771 1.00488C19.2315 1.04432 20.3283 1.52706 21.1348 2.35938L26.7402 8.14648C27.5452 8.97739 27.9959 10.0876 27.999 11.2441C27.999 11.2461 28 11.248 28 11.25V26.5303C27.9999 28.9988 25.9988 30.9999 23.5303 31H8.46973C6.00123 30.9999 4.00015 28.9988 4 26.5303V5.46973C4.00015 3.00123 6.00123 1.00015 8.46973 1H17.9248C17.9411 1 17.9574 1.00177 17.9736 1.00195ZM8.46973 2.5C6.82966 2.50015 5.50015 3.82966 5.5 5.46973V26.5303C5.50015 28.1703 6.82966 29.4999 8.46973 29.5H23.5303C25.1703 29.4999 26.4999 28.1703 26.5 26.5303V12H21.7197C19.2512 11.9999 17.2501 9.99877 17.25 7.53027V2.5H8.46973ZM18.75 7.53027C18.7501 9.17034 20.0797 10.4999 21.7197 10.5H26.3994C26.2706 10.0114 26.0205 9.55841 25.6631 9.18945L20.0576 3.40332C19.6945 3.02851 19.2422 2.76168 18.75 2.61914V7.53027Z"
    fill="currentColor"
  />
</svg>

<svg xmlns="http://www.w3.org/2000/svg" width="32" height="32" fill="none" data-fui-icon="true" viewBox="0 0 32 32"><path fill="currentColor" d="M17.974 1.002 18 1q.04 0 .077.005a4.47 4.47 0 0 1 3.058 1.354l5.605 5.787A4.47 4.47 0 0 1 28 11.244l.001.006v15.28A4.47 4.47 0 0 1 23.53 31H8.47A4.47 4.47 0 0 1 4 26.53V5.47A4.47 4.47 0 0 1 8.47 1h9.455zM8.47 2.5A2.97 2.97 0 0 0 5.5 5.47v21.06a2.97 2.97 0 0 0 2.97 2.97h15.06a2.97 2.97 0 0 0 2.97-2.97V12h-4.78a4.47 4.47 0 0 1-4.47-4.47V2.5zm10.28 5.03a2.97 2.97 0 0 0 2.97 2.97h4.68a2.97 2.97 0 0 0-.737-1.31l-5.605-5.787a2.97 2.97 0 0 0-1.308-.784z"/></svg>
